!!!COM: Gaspar van Weerbeke
!!!CDT: ~1450-~1517
!!!OPR: Missa O venus bant
!!!OTL: Agnus Dei
!!!ONM: 5
!!!AGN: Mass
!!!SCT: Gas0102e
!!!SCA: Gas0102e
!!!voices: 4
**kern	**text	**kern	**text	**kern	**text	**kern	**text
*part4	*part4	*part3	*part3	*part2	*part2	*part1	*part1
*staff4	*staff4	*staff3	*staff3	*staff2	*staff2	*staff1	*staff1
*I"Bassus	*	*I"Tenor	*	*I"Altus	*	*I"Superius	*
*I'B	*	*I'T	*	*I'A	*	*I'S	*
*clefF4	*	*clefGv2	*	*clefGv2	*	*clefG2	*
*k[]	*	*k[]	*	*k[]	*	*k[]	*
*M3/2	*	*M3/2	*	*M3/2	*	*M3/2	*
*met(O|)	*	*met(C.)	*	*met(O|)	*	*met(O|)	*
=1	=1	=1	=1	=1	=1	=1	=1
!!LO:TX:a:t=C. (T)
!!LO:TX:a:t=O| (S, A, B)
1.r	.	1.r	.	1G	A-	1g	A-
.	.	.	.	2A	.	2f	.
=2	=2	=2	=2	=2	=2	=2	=2
1.r	.	1.r	.	4.G	.	4e	.
.	.	.	.	.	.	2d	.
.	.	.	.	8A	.	.	.
.	.	.	.	4B	.	.	.
.	.	.	.	4c	.	2g	.
.	.	.	.	2A	-gnus	.	.
.	.	.	.	.	.	4f#i	.
=3	=3	=3	=3	=3	=3	=3	=3
1.r	.	1.r	.	4.G	De-	2g	-gnus
.	.	.	.	8A	.	.	.
.	.	.	.	4B	.	4r	.
.	.	.	.	2c	.	4g	De-
.	.	.	.	.	.	2a	.
.	.	.	.	[4d	.	.	.
=4	=4	=4	=4	=4	=4	=4	=4
1.r	.	1.r	.	4d]	.	2b	.
.	.	.	.	2e	.	.	.
.	.	.	.	.	.	4cc	.
.	.	.	.	2f	.	2a	.
.	.	.	.	[4d	.	[4dd	.
=5	=5	=5	=5	=5	=5	=5	=5
1.r	.	1.r	.	4d]	.	4dd]	.
.	.	.	.	2g	.	4b	.
.	.	.	.	.	.	2a	.
.	.	.	.	4f	.	.	.
.	.	.	.	4e	.	2g	.
.	.	.	.	[4g	.	.	.
!!LO:LB:g=original
=6	=6	=6	=6	=6	=6	=6	=6
1.r	.	1.r	.	4g]	.	4b	.
.	.	.	.	2f	.	2a	.
.	.	.	.	2d	.	4f	.
.	.	.	.	.	.	2e	-i,
.	.	.	.	4c#i	.	.	.
=7	=7	=7	=7	=7	=7	=7	=7
*	*	*	*	*	*	*	*edit
1.r	.	1.r	.	4d	-i,	4.d	De-
*	*	*	*	*	*edit	*	*
.	.	.	.	4G	De-	.	.
.	.	.	.	.	.	8e	.
.	.	.	.	4A	.	4f	.
.	.	.	.	4B	.	2g	.
.	.	.	.	2c	.	.	.
.	.	.	.	.	.	[4a	.
=8	=8	=8	=8	=8	=8	=8	=8
1.r	.	1.r	.	2d	.	4a]	.
.	.	.	.	.	.	2b	.
.	.	.	.	2e	.	.	.
.	.	.	.	.	.	4.cc	.
.	.	.	.	2f	.	.	.
.	.	.	.	.	.	8b	.
.	.	.	.	.	.	4a	.
=9	=9	=9	=9	=9	=9	=9	=9
1.r	.	1.r	.	4e	.	4g	.
.	.	.	.	2d	.	2a	.
.	.	.	.	4B	.	2g	.
.	.	.	.	2A	-i,	.	.
.	.	.	.	.	.	4f#i	.
=10	=10	=10	=10	=10	=10	=10	=10
*	*	*lig	*	*	*Xedit	*	*
2.GG	Qui	[1.G	Qui	4.G	qui	1g	-i,
.	.	.	.	8A	.	.	.
.	.	.	.	4B	.	.	.
4AA	.	.	.	4c	.	.	.
2BB	.	.	.	2d	.	2r	.
=11	=11	=11	=11	=11	=11	=11	=11
*	*	*	*	*	*	*	*Xedit
4C	tol-	1.G]	.	1e	tol-	2.g	qui
2E	.	.	.	.	.	.	.
4C	.	.	.	.	.	4a	.
2BB	.	.	.	2d	.	2b	.
!!LO:LB:g=original
=12	=12	=12	=12	=12	=12	=12	=12
2AA	-lis	[1.A	.	2c	-lis	4.cc	tol-
.	.	.	.	.	.	8b	.
*	*	*	*	*	*edit	*	*
4.AA	pec-	.	.	4.c	pec-	4a	.
.	.	.	.	.	.	8gL	.
8BB	.	.	.	8d	.	8fJ	.
4C	.	.	.	4e	.	4e	-lis
4D	.	.	.	4d	.	4f	.
=13	=13	=13	=13	=13	=13	=13	=13
*	*	*	*	*	*	*	*edit
4AA	-ca-	1.A]	.	4c	-ca-	4e	pec-
*	*	*Xlig	*	*	*	*	*
2D	.	.	.	2d	.	4f	.
.	.	.	.	.	.	4d	.
2F	.	.	.	8cL	.	2a	-ca-
.	.	.	.	8BJ	.	.	.
.	.	.	.	4.A	.	.	.
4F	-ta	.	.	.	.	8gL	.
.	.	.	.	8B	.	8fJ	.
=14	=14	=14	=14	=14	=14	=14	=14
*	*edit	*col	*	*	*	*	*
1C	mun-	[1.G	tol-	2c	-ta	2e	-ta,
.	.	.	.	2c	mun-	4r	.
*	*	*	*	*	*	*	*Xedit
.	.	.	.	.	.	4e	pec-
2GG	-di,	.	.	2B	-di,	4d	.
.	.	.	.	.	.	[4g	-ca-
!!LO:LB:g=original
=15	=15	=15	=15	=15	=15	=15	=15
4r	.	2G]	.	2B	qui	8g]L	.
.	.	.	.	.	.	8aJ	.
4G	qui	.	.	.	.	4b	-ta
*	*	*	*	*lig	*	*	*edit
4.F	tol-	1A	.	2A	tol-	8ccL	mun-
*	*	*Xcol	*	*	*	*	*
.	.	.	.	.	.	8b	.
.	.	.	.	.	.	8a	.
8E	.	.	.	.	.	8gJ	.
2D	-lis	.	.	2d	.	4.f#i	.
*	*	*	*	*Xlig	*	*	*
.	.	.	.	.	.	8e	.
=16	=16	=16	=16	=16	=16	=16	=16
4GG	pec-	1.G	-lis	4B	-lis	1g	-di,
4C	.	.	.	4c	.	.	.
*	*	*	*	*	*Xedit	*	*
4BB	.	.	.	4d	pec-	.	.
2C	-ca-	.	.	4.e	-ca-	.	.
.	.	.	.	.	.	2r	.
.	.	.	.	8d	.	.	.
[4E	.	.	.	4c	.	.	.
=17	=17	=17	=17	=17	=17	=17	=17
4E]	.	1.r	.	4B	.	1.r	.
4F	.	.	.	2d	.	.	.
4G	.	.	.	.	.	.	.
4C	.	.	.	2c	.	.	.
2D	-ta	.	.	.	.	.	.
.	.	.	.	4B	-ta	.	.
=18	=18	=18	=18	=18	=18	=18	=18
*lig	*Xedit	*	*	*	*	*	*Xedit
1.C	mun-	[1.c	pec-	2.c	mun-	1e	mun-
.	.	.	.	4B	.	.	.
*	*	*	*	*	*	*	*edit
.	.	.	.	2G	.	2e	-di,
!!LO:PB:g=original
=19	=19	=19	=19	=19	=19	=19	=19
1F	.	1.c]	.	1A	-di:	4.f	mun-
*Xlig	*	*	*	*	*	*	*
.	.	.	.	.	.	8g	.
.	.	.	.	.	.	4a	.
.	.	.	.	.	.	8gL	.
.	.	.	.	.	.	8fJ	.
4A	.	.	.	2r	.	4e	.
4F	.	.	.	.	.	4f	.
=20	=20	=20	=20	=20	=20	=20	=20
*col	*	*	*	*	*	*	*
4.G	.	2.B	-ca-	1.r	.	4d	.
.	.	.	.	.	.	2e	.
8F	.	.	.	.	.	.	.
*Xcol	*	*	*	*	*	*	*
4D	.	.	.	.	.	.	.
4F	.	2A	-ta	.	.	2d	.
2E	-di:	.	.	.	.	.	.
.	.	4G	.	.	.	4c#i	.
=21	=21	=21	=21	=21	=21	=21	=21
*	*	*lig	*	*	*	*	*Xedit
1D	mi-	1.A	mun-	1f	mi-	2d	-di:
.	.	.	.	.	.	2r	.
2F	-se-	.	.	2f	-se-	2a	mi-
=22	=22	=22	=22	=22	=22	=22	=22
*	*	*	*	*	*edit	*	*
[1.C	-re-	1.c	.	2e	-re-	4g	.
*	*	*Xlig	*	*	*	*	*
.	.	.	.	.	.	4e	.
*	*	*	*	*col	*	*	*
.	.	.	.	4.e	-re,	4c	.
.	.	.	.	.	.	2g	-se-
.	.	.	.	8d	.	.	.
.	.	.	.	4.c	.	.	.
.	.	.	.	.	.	[4g	-re-
.	.	.	.	8B	.	.	.
*	*	*	*	*Xcol	*	*	*
=23	=23	=23	=23	=23	=23	=23	=23
1C]	.	1.c	-di:	4.G	mi-	8g]L	.
.	.	.	.	.	.	8f	.
.	.	.	.	.	.	8e	.
.	.	.	.	8F	.	8dJ	.
.	.	.	.	4G	.	4c	-re,
*	*	*	*	*	*	*	*edit
.	.	.	.	4.A	-se-	2cc	mi-
2AA	.	.	.	.	.	.	.
.	.	.	.	8E	.	.	.
.	.	.	.	4F	.	8bL	.
.	.	.	.	.	.	8aJ	.
!!LO:LB:g=original
=24	=24	=24	=24	=24	=24	=24	=24
1.GG	-re	1.r	.	4.G	-re-	4.b	-se-
.	.	.	.	8F	.	8cc	.
.	.	.	.	4D	.	4dd	.
*	*	*	*	*	*Xedit	*	*
.	.	.	.	4E	-re	4.g	-re-
.	.	.	.	4D	.	.	.
.	.	.	.	.	.	8a	.
*	*	*	*	*	*edit	*	*
.	.	.	.	[4G	no-	4b	.
=25	=25	=25	=25	=25	=25	=25	=25
4r	.	1.r	.	8G]L	.	4g	-re
.	.	.	.	8AJ	.	.	.
*	*edit	*	*	*	*	*	*
2.GG	no-	.	.	2B	.	2d	no-
.	.	.	.	8AL	.	8cL	.
.	.	.	.	8GJ	.	8BJ	.
2D	.	.	.	2F#i	.	2A	.
=26	=26	=26	=26	=26	=26	=26	=26
*	*	*col	*	*	*	*	*
1GG	-bis,	1G	mi-	2G	-bis,	4G	-bis,
.	.	.	.	.	.	2d	mi-
.	.	.	.	4r	.	.	.
.	.	.	.	4G	mi-	4g	.
*	*	*lig	*	*	*	*	*
2r	.	[2d	-se-	4.D	-se-	4f	.
.	.	.	.	.	.	[4a	-se-
.	.	.	.	8E	.	.	.
=27	=27	=27	=27	=27	=27	=27	=27
2r	.	2d]	.	4F	.	4a]	.
.	.	.	.	4.G	-re-	4.b	-re-
*col	*	*	*	*	*	*	*
1G	mi-	1B	.	.	.	.	.
*Xcol	*	*Xcol	*	*	*	*	*
*	*	*Xlig	*	*	*	*	*
.	.	.	.	8A	.	8cc	.
.	.	.	.	4B	.	2dd	-re
.	.	.	.	4G	.	.	.
.	.	.	.	[4d	-re	4g	no-
!!LO:LB:g=original
=28	=28	=28	=28	=28	=28	=28	=28
*lig	*	*	*	*	*	*	*
1.D	-se-	1.A	-re-	4d]	.	4f	.
.	.	.	.	2d	no-	4.a	.
.	.	.	.	.	.	8gL	.
.	.	.	.	8cL	.	8f#j	.
.	.	.	.	8BJ	.	8eJ	.
.	.	.	.	4A	.	2f#i	.
.	.	.	.	4d	.	.	.
=29	=29	=29	=29	=29	=29	=29	=29
1GG	.	1.G	-re	4.B	.	2g	-bis,
*Xlig	*	*	*	*	*	*	*
.	.	.	.	8c	.	.	.
.	.	.	.	4d	.	4r	.
*	*	*	*	*	*	*	*Xedit
.	.	.	.	4G	.	2b	no-
2G	-re-	.	.	2d	-bis,	.	.
.	.	.	.	.	.	8aL	.
.	.	.	.	.	.	8gJ	.
=30	=30	=30	=30	=30	=30	=30	=30
2F	.	2d	no-	4r	.	2a	.
*	*	*	*	*	*Xedit	*	*
.	.	.	.	4f	no-	.	.
4G	.	4e	.	4e	.	4g	.
4A	.	4c	.	4f	.	2cc	.
2G	.	2d	.	2g	.	.	.
.	.	.	.	.	.	4b	.
=31	=31	=31	=31	=31	=31	=31	=31
*	*	*	*edit	*	*	*	*edit
2.A	.	1c	-bis,	2e	.	2cc	-bis,
*	*	*	*	*	*edit	*	*
.	.	.	.	4c	-bis,	4r	.
4F	.	.	.	2f	no-	4cc	no-
2F	-re	2c	no-	.	.	4.a	.
.	.	.	.	8eL	.	.	.
.	.	.	.	8dJ	.	8b	.
!!LO:LB:g=original
=32	=32	=32	=32	=32	=32	=32	=32
2F	no-	2A	.	4.c	.	4cc	.
.	.	.	.	.	.	8bL	.
.	.	.	.	8d	.	8aJ	.
4E	.	2c	.	2e	.	4.g	.
4C	.	.	.	.	.	.	.
.	.	.	.	.	.	8a	.
2BB	-bis,	2G	-bis,	2d	.	8bL	.
.	.	.	.	.	.	8ccJ	.
.	.	.	.	.	.	[4dd	.
=33	=33	=33	=33	=33	=33	=33	=33
2BB	no-	2d	no-	4B	.	4dd]	.
.	.	.	.	4G	.	2b	.
2C	.	4c	.	2A	-bis,	.	.
.	.	4A	.	.	.	2a	.
4D	.	2B	.	2r	.	.	.
4E	.	.	.	.	.	4g#i	.
=34	=34	=34	=34	=34	=34	=34	=34
2AA	-bis,	2A	.	4.c	no-	4a	-bis,
.	.	.	.	.	.	4.cc	no-
.	.	.	.	8d	.	.	.
4r	.	2c	.	2e	.	.	.
.	.	.	.	.	.	8b	.
*	*Xedit	*	*	*	*	*	*
4AA	no-	.	.	.	.	4.a	.
4.D	.	4A	.	[2f	.	.	.
.	.	.	.	.	.	8gL	.
.	.	[4d	.	.	.	8f	.
8E	.	.	.	.	.	8eJ	.
=35	=35	=35	=35	=35	=35	=35	=35
2F	.	2d]	.	2f]	.	4d	.
.	.	.	.	.	.	2a	.
4G	.	4B	.	4d	.	.	.
4C	.	4c	.	4e	.	2g	.
*	*	*	*	*	*Xedit	*	*
2D	.	2A	.	[2dl	-bis.	.	.
.	.	.	.	.	.	4f#i	.
=36	=36	=36	=36	=36	=36	=36	=36
*	*	*	*Xedit	*	*	*	*Xedit
1.GGl	-bis.	1.Gl	-bis.	1.d]	.	1.gl	-bis.
!!LO:PB:g=original
=37||	=37||	=37||	=37||	=37||	=37||	=37||	=37||
*M2/2	*	*M2/2	*	*M2/2	*	*M2/2	*
*met(C|)	*	*met(C|)	*	*met(C|)	*	*met(C|)	*
1r	.	1r	.	1G	A-	4.g	A-
.	.	.	.	.	.	8f	.
.	.	.	.	.	.	4d	.
.	.	.	.	.	.	4e	.
=38	=38	=38	=38	=38	=38	=38	=38
1r	.	1r	.	1F	.	4d	.
.	.	.	.	.	.	4.f	.
.	.	.	.	.	.	8e	.
.	.	.	.	.	.	[4d	-gnus
=39	=39	=39	=39	=39	=39	=39	=39
1r	.	1r	.	2E	-gnus	4d]	.
.	.	.	.	.	.	4c	.
*	*	*	*	*lig	*	*	*
.	.	.	.	[2D	De-	4.d	De-
.	.	.	.	.	.	8c	.
=40	=40	=40	=40	=40	=40	=40	=40
1r	.	1r	.	2D]	.	4A	.
.	.	.	.	.	.	4d	.
.	.	.	.	[2G	.	4B	.
.	.	.	.	.	.	[4e	.
=41	=41	=41	=41	=41	=41	=41	=41
1r	.	1r	.	2G]	.	8e]L	.
*	*	*	*	*Xlig	*	*	*
.	.	.	.	.	.	8d	.
.	.	.	.	.	.	8c	.
.	.	.	.	.	.	8BJ	.
.	.	.	.	2F#i	.	2A	.
=42	=42	=42	=42	=42	=42	=42	=42
*lig	*	*	*	*	*	*	*
2.GG	A-	1r	.	1G	-i,	1G	-i,
[4G	.	.	.	.	.	.	.
!!LO:LB:g=original
=43	=43	=43	=43	=43	=43	=43	=43
4G]	.	1r	.	2r	.	1r	.
*Xlig	*	*	*	*	*	*	*
2B	-gnus	.	.	.	.	.	.
.	.	.	.	2G	qui	.	.
8AL	.	.	.	.	.	.	.
8GJ	.	.	.	.	.	.	.
=44	=44	=44	=44	=44	=44	=44	=44
2F	.	1r	.	2.A	tol-	1r	.
8FL	De-	.	.	.	.	.	.
8GJ	.	.	.	.	.	.	.
4A	.	.	.	4A	-lis	.	.
=45	=45	=45	=45	=45	=45	=45	=45
4D	-i,	1r	.	2.A	pec-	1r	.
2F	qui	.	.	.	.	.	.
8EL	.	.	.	4G	.	.	.
8DJ	.	.	.	.	.	.	.
=46	=46	=46	=46	=46	=46	=46	=46
4C	.	1r	.	2.c	-ca-	1r	.
4.F	tol-	.	.	.	.	.	.
8GL	.	.	.	.	.	.	.
8A	.	.	.	4B	.	.	.
8BJ	.	.	.	.	.	.	.
=47	=47	=47	=47	=47	=47	=47	=47
4c	.	1r	.	2.A	.	1r	.
2F	.	.	.	.	.	.	.
4E	.	.	.	8BL	.	.	.
.	.	.	.	8cJ	.	.	.
=48	=48	=48	=48	=48	=48	=48	=48
4D	.	1r	.	2.d	.	1r	.
2G	-lis	.	.	.	.	.	.
*	*edit	*	*	*	*	*	*
[4GG	pec-	.	.	4c	.	.	.
!!LO:LB:g=original
=49	=49	=49	=49	=49	=49	=49	=49
8GG]L	.	1r	.	2B	-ta	1r	.
8AA	.	.	.	.	.	.	.
8BB	.	.	.	.	.	.	.
8CJ	.	.	.	.	.	.	.
*	*	*	*	*	*edit	*	*
4.D	-ca-	.	.	[2A	mun-	.	.
8E	.	.	.	.	.	.	.
=50	=50	=50	=50	=50	=50	=50	=50
2F	-ta	1r	.	4A]	.	1r	.
.	.	.	.	4G	.	.	.
4G	.	.	.	[2G	.	.	.
4GG	mun-	.	.	.	.	.	.
=51	=51	=51	=51	=51	=51	=51	=51
4BB	.	1r	.	2G]	.	1r	.
4C	.	.	.	.	.	.	.
2AA	.	.	.	2F#i	.	.	.
=52	=52	=52	=52	=52	=52	=52	=52
1GG	-di,	1r	.	2.G	-di,	2r	.
*	*	*	*	*	*	*	*edit
.	.	.	.	.	.	4.g	A-
.	.	.	.	4A	A-	.	.
.	.	.	.	.	.	8f	.
=53	=53	=53	=53	=53	=53	=53	=53
1r	.	1r	.	4B	.	4g	.
.	.	.	.	4c	-gnus	4.a	.
.	.	.	.	2A	De-	.	.
.	.	.	.	.	.	8e	.
.	.	.	.	.	.	4f#j	.
=54	=54	=54	=54	=54	=54	=54	=54
1r	.	1r	.	2G	-i,	4g	.
.	.	.	.	.	.	2b	-gnus
.	.	.	.	4r	.	.	.
.	.	.	.	[4A	qui	4cc	.
!!LO:LB:g=original
=55	=55	=55	=55	=55	=55	=55	=55
2F	qui	1r	.	4A]	.	2a	De-
.	.	.	.	4c	.	.	.
4G	.	.	.	4B	.	2g	-i,
4E	.	.	.	4G	.	.	.
=56	=56	=56	=56	=56	=56	=56	=56
4D	tol-	1r	.	2F	tol-	4r	.
*	*	*	*	*	*	*	*Xedit
8CL	.	.	.	.	.	2a	qui
8BBJ	.	.	.	.	.	.	.
2AA	.	.	.	2F	-lis	.	.
.	.	.	.	.	.	4cc	.
=57	=57	=57	=57	=57	=57	=57	=57
2GG	-lis	1r	.	2G	pec-	4b	tol-
.	.	.	.	.	.	4g	.
2r	.	.	.	2A	-ca-	2f	-lis
=58	=58	=58	=58	=58	=58	=58	=58
4G	pec-	1r	.	4B	.	2g	pec-
4C	.	.	.	2c	.	.	.
*col	*	*	*	*	*	*	*
4.F	-ca-	.	.	.	.	4.a	-ca-
*	*	*	*	*col	*	*	*
.	.	.	.	[4d	.	.	.
8E	.	.	.	.	.	8g	.
*Xcol	*	*	*	*	*	*	*
=59	=59	=59	=59	=59	=59	=59	=59
2D	.	1r	.	8d]L	.	8fL	.
.	.	.	.	8eJ	.	8eJ	.
*	*	*	*	*Xcol	*	*	*
.	.	.	.	4f	.	4d	.
4C	.	.	.	4e	.	4e	.
4D	.	.	.	[4d	.	[4a	.
=60	=60	=60	=60	=60	=60	=60	=60
4BB	.	1r	.	4d]	.	4a]	.
4GG	.	.	.	8cL	.	2g	.
.	.	.	.	8BJ	.	.	.
2D	-ta,	.	.	2A	.	.	.
.	.	.	.	.	.	4f#i	.
!!LO:LB:g=original
=61	=61	=61	=61	=61	=61	=61	=61
4r	.	1r	.	2G	-ta,	2g	-ta
4GG	pec-	.	.	.	.	.	.
*	*	*	*	*	*	*	*edit
2AA	-ca-	.	.	2r	.	4e	mun-
.	.	.	.	.	.	4c	.
=62	=62	=62	=62	=62	=62	=62	=62
2BB	-ta	1r	.	4r	.	2d	.
.	.	.	.	4G	pec-	.	.
*col	*	*	*	*	*	*	*
4.C	mun-	.	.	2A	-ca-	2c	-di,
8BB	.	.	.	.	.	.	.
*Xcol	*	*	*	*	*	*	*
=63	=63	=63	=63	=63	=63	=63	=63
2GG	-di,	1r	.	2B	-ta	4r	.
.	.	.	.	.	.	4g	pec-
2r	.	.	.	4.c	mun-	2a	-ca-
.	.	.	.	8B	.	.	.
=64	=64	=64	=64	=64	=64	=64	=64
1r	.	1r	.	2G	-di,	2b	-ta-
*	*	*	*	*	*	*col	*
.	.	.	.	4r	.	4.cc	-mun-
.	.	.	.	[4c	pec-	.	.
.	.	.	.	.	.	8b	.
*	*	*	*	*	*	*Xcol	*
=65	=65	=65	=65	=65	=65	=65	=65
1r	.	1r	.	4c]	.	2g	-di,
.	.	.	.	4B	.	.	.
.	.	.	.	4.A	-ca-	4r	.
.	.	.	.	.	.	[4cc	pec-
.	.	.	.	8B	.	.	.
=66	=66	=66	=66	=66	=66	=66	=66
1r	.	1r	.	4c	.	4cc]	.
*	*	*	*	*col	*	*	*
.	.	.	.	4.d	.	4b	.
.	.	.	.	.	.	4.a	-ca-
.	.	.	.	8c	.	.	.
*	*	*	*	*Xcol	*	*	*
.	.	.	.	[4A	.	.	.
.	.	.	.	.	.	8b	.
!!LO:PB:g=original
=67	=67	=67	=67	=67	=67	=67	=67
1r	.	1r	.	4A]	.	4cc	.
.	.	.	.	4B	.	4.dd	.
.	.	.	.	2G	-ta	.	.
.	.	.	.	.	.	8ccL	.
.	.	.	.	.	.	8b	.
.	.	.	.	.	.	8aJ	.
=68	=68	=68	=68	=68	=68	=68	=68
*	*	*	*	*	*Xedit	*	*
2C	mun-	1r	.	2c	mun-	2g	-ta
4F	.	.	.	4d	.	4f	.
*	*	*	*	*	*	*	*Xedit
4E	.	.	.	[4e	.	[4g	mun-
=69	=69	=69	=69	=69	=69	=69	=69
*lig	*	*	*	*	*	*	*
2C	.	1r	.	4e]	.	4g]	.
.	.	.	.	2c	.	8fL	.
.	.	.	.	.	.	8eJ	.
2G	.	.	.	.	.	2d	.
*Xlig	*	*	*	*	*	*	*
.	.	.	.	4B	.	.	.
=70	=70	=70	=70	=70	=70	=70	=70
2A	-di:	1r	.	2c	-di:	2c	-di:
2F	mi-	.	.	4r	.	2r	.
*	*	*	*	*	*edit	*	*
.	.	.	.	[4d	mi-	.	.
=71	=71	=71	=71	=71	=71	=71	=71
2G	-se-	1r	.	4d]	.	1r	.
.	.	.	.	2B	-se-	.	.
2E	-re-	.	.	.	.	.	.
.	.	.	.	[4c	-re-	.	.
=72	=72	=72	=72	=72	=72	=72	=72
2F	-re	1r	.	4c]	.	1r	.
.	.	.	.	2d	-re	.	.
4.D	no-	.	.	.	.	.	.
.	.	.	.	8cL	.	.	.
8E	.	.	.	8BJ	.	.	.
!!LO:LB:g=original
=73	=73	=73	=73	=73	=73	=73	=73
4F	.	1r	.	4A	no-	2r	.
2G	.	.	.	4G	.	.	.
.	.	.	.	2A	.	2c	mi-
4F#i	.	.	.	.	.	.	.
=74	=74	=74	=74	=74	=74	=74	=74
2G	-bis,	1r	.	1G	-bis,	4.B	-se-
.	.	.	.	.	.	8c	.
4r	.	.	.	.	.	4d	-re-
4G	mi-	.	.	.	.	4e	.
=75	=75	=75	=75	=75	=75	=75	=75
4F	.	1r	.	2A	mi-	4d	.
2D	-se-	.	.	.	.	2f	.
.	.	.	.	4A	-se-	.	.
[4G	-re-	.	.	[4B-X	-re-	8eL	.
.	.	.	.	.	.	8dJ	.
=76	=76	=76	=76	=76	=76	=76	=76
8G]L	.	1r	.	8B-]L	.	8eL	.
8F	.	.	.	8A	.	8d	.
8E	.	.	.	8G	.	8c	.
8DJ	.	.	.	8FJ	.	8BJ	.
2E	.	.	.	2G	.	2c	.
=77	=77	=77	=77	=77	=77	=77	=77
2D	-re	1r	.	2.A	-re	2d	-re,
4C	.	.	.	.	.	2r	.
[4AA	.	.	.	[4c	no-	.	.
=78	=78	=78	=78	=78	=78	=78	=78
4AA]	.	1r	.	8c]L	.	1r	.
.	.	.	.	8BJ	.	.	.
4.C	no-	.	.	4.G	.	.	.
8BB	.	.	.	8A	.	.	.
[4GG	.	.	.	[4B	.	.	.
!!LO:LB:g=original
=79	=79	=79	=79	=79	=79	=79	=79
4GG]	.	1r	.	8B]L	.	1r	.
.	.	.	.	8AJ	.	.	.
4D	.	.	.	4.F	.	.	.
4AA	.	.	.	.	.	.	.
.	.	.	.	8G	.	.	.
[4C	.	.	.	[4A	.	.	.
=80	=80	=80	=80	=80	=80	=80	=80
4C]	.	1r	.	4A]	.	1r	.
4BB	.	.	.	2G	.	.	.
2AA	-bis,	.	.	.	.	.	.
.	.	.	.	4F#i	.	.	.
=81	=81	=81	=81	=81	=81	=81	=81
4r	.	1r	.	2G	-bis,	1r	.
2GG	mi-	.	.	.	.	.	.
.	.	.	.	2r	.	.	.
4AA	.	.	.	.	.	.	.
=82	=82	=82	=82	=82	=82	=82	=82
2BB	-se-	1r	.	2r	.	1r	.
*	*	*	*	*	*Xedit	*	*
4.C	-re-	.	.	[2G	mi-	.	.
8D	.	.	.	.	.	.	.
=83	=83	=83	=83	=83	=83	=83	=83
4E	.	1r	.	4G]	.	1r	.
4F	.	.	.	4A	.	.	.
2D	.	.	.	2B	-se-	.	.
=84	=84	=84	=84	=84	=84	=84	=84
*	*	*	*	*	*	*	*edit
2C	-re,	1r	.	4.c	-re-	2.g	mi-
.	.	.	.	8d	.	.	.
2r	.	.	.	4e	.	.	.
.	.	.	.	4f	.	4a	.
!!LO:LB:g=original
=85	=85	=85	=85	=85	=85	=85	=85
2G	mi-	1r	.	2d	.	2b	-se-
*	*	*	*	*	*edit	*	*
2A	-se-	.	.	2c	-re	2cc	.
=86	=86	=86	=86	=86	=86	=86	=86
2F	-re-	1r	.	2f	no-	2a	-re-
2G	-re	.	.	4e	.	4g	.
*	*	*	*	*col	*	*	*
.	.	.	.	[4g	.	[4b	.
=87	=87	=87	=87	=87	=87	=87	=87
4E	no-	1r	.	8g]L	.	4b]	.
.	.	.	.	8fJ	.	.	.
4C	.	.	.	4e	.	4cc	.
*	*	*	*	*Xcol	*	*	*
2G	-bis,	.	.	4d	.	2b	.
.	.	.	.	[4g	.	.	.
=88	=88	=88	=88	=88	=88	=88	=88
4r	.	1r	.	4g]	.	4b	-re
4D	no-	.	.	4f	.	2a	no-
2E	.	.	.	4e	.	.	.
.	.	.	.	[4c	.	4g	.
=89	=89	=89	=89	=89	=89	=89	=89
4F	.	1r	.	4c]	.	4a	.
4C	.	.	.	4e	.	2cc	.
2G	-bis,	.	.	2d	-bis,	.	.
.	.	.	.	.	.	4b	.
=90	=90	=90	=90	=90	=90	=90	=90
4.C	mi-	1r	.	2.c	mi-	2cc	.
8D	.	.	.	.	.	.	.
4E	.	.	.	.	.	2cc	-bis,
4F	-se-	.	.	4A	-se-	.	.
!!LO:LB:g=original
=91	=91	=91	=91	=91	=91	=91	=91
4G	-re-	1r	.	4B	.	1r	.
8FL	.	.	.	2d	-re-	.	.
8EJ	.	.	.	.	.	.	.
4D	.	.	.	.	.	.	.
[4G	.	.	.	8cL	.	.	.
.	.	.	.	8BJ	.	.	.
=92	=92	=92	=92	=92	=92	=92	=92
*	*	*	*	*	*Xedit	*	*
4G]	.	1r	.	2A	-re	2.cc	mi-
8FL	.	.	.	.	.	.	.
8EJ	.	.	.	.	.	.	.
*	*	*	*	*	*edit	*	*
2F	-re	.	.	2A	no-	.	.
.	.	.	.	.	.	4a	-se-
=93	=93	=93	=93	=93	=93	=93	=93
4G	no-	1r	.	2G	-bis,	4b	.
2B	.	.	.	.	.	2dd	-re-
.	.	.	.	4r	.	.	.
8AL	.	.	.	4G	mi-	8ccL	.
8GJ	.	.	.	.	.	8bJ	.
=94	=94	=94	=94	=94	=94	=94	=94
4.F	.	1r	.	4A	.	2a	-re
.	.	.	.	2c	-se-	.	.
8E	.	.	.	.	.	.	.
*	*	*	*	*	*	*	*Xedit
2F	.	.	.	.	.	2a	no-
.	.	.	.	4A	.	.	.
=95	=95	=95	=95	=95	=95	=95	=95
*	*	*	*	*	*	*	*edit
2G	.	1r	.	2B	-re-	2g	-bis,
2C	-bis,	.	.	2c	-re	4r	.
.	.	.	.	.	.	4g	mi-
!!LO:LB:g=original
=96	=96	=96	=96	=96	=96	=96	=96
*	*	*	*	*	*Xedit	*	*
2r	.	1r	.	2f	no-	4a	.
.	.	.	.	.	.	2cc	-se-
2C	mi-	.	.	4e	.	.	.
.	.	.	.	4c	.	8bL	.
.	.	.	.	.	.	8aJ	.
=97	=97	=97	=97	=97	=97	=97	=97
4G	-se-	1r	.	2d	.	4b	-re-
4F	.	.	.	.	.	2a	.
4G	-re-	.	.	4B	.	.	.
4E	.	.	.	4G	.	[4g	-re
=98	=98	=98	=98	=98	=98	=98	=98
2D	-re	1r	.	2A	.	4g]	.
.	.	.	.	.	.	4f	.
4r	.	.	.	4G	.	4e	.
[4GG	no-	.	.	[4B	.	[4d	no-
=99	=99	=99	=99	=99	=99	=99	=99
8GG]L	.	1r	.	4B]	.	4d]	.
8AA	.	.	.	.	.	.	.
8BB	.	.	.	8AL	.	4B	.
8CJ	.	.	.	8GJ	.	.	.
*	*	*	*	*	*edit	*	*
2D	-bis,	.	.	2F	-bis,	2A	-bis,
=100	=100	=100	=100	=100	=100	=100	=100
4E	no-	1r	.	4r	.	8GL	no-
.	.	.	.	.	.	8A	.
4G	.	.	.	2d	mi-	8B	.
.	.	.	.	.	.	8cJ	.
4F	.	.	.	.	.	4d	.
[4G	.	.	.	[4B	-se-	4e	.
=101	=101	=101	=101	=101	=101	=101	=101
4G]	.	1r	.	4B]	.	4d	.
8FL	.	.	.	8AL	.	2g	.
8EJ	.	.	.	8GJ	.	.	.
2D	-bis,	.	.	2A	-re-	.	.
.	.	.	.	.	.	4f#i	.
!!LO:LB:g=original
=102	=102	=102	=102	=102	=102	=102	=102
4r	.	1r	.	2G	-re	4g	.
4G	no-	.	.	.	.	4b	.
4F	.	.	.	4A	.	4a	.
[4G	.	.	.	[4G	no-	[4b	.
=103	=103	=103	=103	=103	=103	=103	=103
4G]	.	1r	.	8G]L	.	4b]	.
.	.	.	.	8A	.	.	.
8FL	.	.	.	8B	.	8aL	.
8EJ	.	.	.	8cJ	.	8gJ	.
2D	.	.	.	2d	-bis,	2f#i	.
=104	=104	=104	=104	=104	=104	=104	=104
*	*	*	*	*	*	*	*Xedit
4E	-bis,	1r	.	4r	.	[1gl	-bis.
4.C	no-	.	.	2e	no-	.	.
8DL	.	.	.	.	.	.	.
8E	.	.	.	8dL	.	.	.
8FJ	.	.	.	8cJ	.	.	.
=105	=105	=105	=105	=105	=105	=105	=105
4G	.	1r	.	4B	.	1g_	.
2E	.	.	.	2c	.	.	.
8DL	.	.	.	8BL	.	.	.
8CJ	.	.	.	8AJ	.	.	.
=106	=106	=106	=106	=106	=106	=106	=106
*	*	*	*	*	*Xedit	*	*
4BB	.	1r	.	[1Gl	-bis.	1g_	.
2C	.	.	.	.	.	.	.
8BBL	.	.	.	.	.	.	.
8AAJ	.	.	.	.	.	.	.
=107	=107	=107	=107	=107	=107	=107	=107
1GGl	-bis.	1r	.	1G]	.	1g]	.
!!LO:LB:g=original
=108||	=108||	=108||	=108||	=108||	=108||	=108||	=108||
!!LO:TX:a:t=C (T)
!!LO:TX:a:t=C| (S, A, B)
*clefGv2	*	*clefF4	*	*clefGv2	*	*clefG2	*
*M2/2	*	*M2/2	*	*M2/2	*	*M2/2	*
*met(C|)	*	*met(C)	*	*met(C|)	*	*met(C|)	*
*	*Xedit	*	*	*	*	*	*
!LO:TX:a:t=Canon_ Descenderunt in profundis quasi lapis	!	!	!	!	!	!	!
2.G	A-	1GG	A-	2d	A-	1r	.
.	.	.	.	4B	.	.	.
4E	.	.	.	4G	.	.	.
=109	=109	=109	=109	=109	=109	=109	=109
4F	.	2AA	-gnus	2.c	.	1r	.
2E	.	.	.	.	.	.	.
.	.	2AA	De-	.	.	.	.
8DL	.	.	.	4A	.	.	.
8CJ	.	.	.	.	.	.	.
=110	=110	=110	=110	=110	=110	=110	=110
4.BB	-gnus	1GG	-i,	2B	.	1r	.
8C	.	.	.	.	.	.	.
4D	.	.	.	4G	-gnus	.	.
[4E	De-	.	.	[4G	De-	.	.
=111	=111	=111	=111	=111	=111	=111	=111
8E]L	.	2r	.	8G]L	.	1r	.
8DJ	.	.	.	8A	.	.	.
4.G	.	.	.	8B	.	.	.
.	.	.	.	8cJ	.	.	.
*	*	*	*edit	*	*	*	*
.	.	2GG	A-	4.d	.	.	.
8A	.	.	.	.	.	.	.
4B	.	.	.	.	.	.	.
.	.	.	.	8c	.	.	.
=112	=112	=112	=112	=112	=112	=112	=112
8cL	.	2AA	-gnus	4.A	.	1r	.
8B	.	.	.	.	.	.	.
8A	.	.	.	.	.	.	.
8GJ	.	.	.	8B	.	.	.
4.F	.	2AA	De-	4c	.	.	.
.	.	.	.	4A	.	.	.
8E	.	.	.	.	.	.	.
!!LO:LB:g=original
=113	=113	=113	=113	=113	=113	=113	=113
2.G	.	1GG	-i,	2B	.	8GL	A-
.	.	.	.	.	.	8A	.
.	.	.	.	.	.	8B	.
.	.	.	.	.	.	8cJ	.
.	.	.	.	2G	.	4d	.
8FL	.	.	.	.	.	4e	.
8EJ	.	.	.	.	.	.	.
=114	=114	=114	=114	=114	=114	=114	=114
2D	-i,	2r	.	1d	-i,	8fL	.
.	.	.	.	.	.	8e	.
.	.	.	.	.	.	8d	.
.	.	.	.	.	.	8cJ	.
2D	qui	2GG	qui	.	.	4.B	.
.	.	.	.	.	.	8A	.
=115	=115	=115	=115	=115	=115	=115	=115
4C	tol-	2.C	tol-	1r	.	2.c	-gnus
4.E	.	.	.	.	.	.	.
8F	.	.	.	.	.	.	.
[4G	-lis	4C	-lis	.	.	[4e	De-
=116	=116	=116	=116	=116	=116	=116	=116
8G]L	.	2.C	pec-	1r	.	8e]L	.
8F	.	.	.	.	.	8fJ	.
8E	.	.	.	.	.	4.g	.
8DJ	.	.	.	.	.	.	.
4C	.	.	.	.	.	.	.
.	.	.	.	.	.	8f	.
*	*edit	*	*	*	*	*	*
4G	pec-	4BB	.	.	.	4g	.
=117	=117	=117	=117	=117	=117	=117	=117
4F	.	2.AA	-ca-	1r	.	4.a	.
2A	-ca-	.	.	.	.	.	.
.	.	.	.	.	.	8b	.
.	.	.	.	.	.	4cc	.
4B	.	4GG	.	.	.	4dd	.
!!LO:PB:g=original
=118	=118	=118	=118	=118	=118	=118	=118
4c	.	2AA	-ta,	2r	.	4a	.
2A	.	.	.	.	.	2cc	.
.	.	2AA	A-	2e	qui	.	.
8GL	.	.	.	.	.	8bL	.
8FJ	.	.	.	.	.	8aJ	.
=119	=119	=119	=119	=119	=119	=119	=119
2E	-ta,	2C	-gnus	4e	tol-	2g	-i,
.	.	.	.	2e	-lis	.	.
2r	.	2C	De-	.	.	2r	.
.	.	.	.	8dL	.	.	.
.	.	.	.	8cJ	.	.	.
=120	=120	=120	=120	=120	=120	=120	=120
1r	.	2GG	-i,	4B	.	1r	.
*	*	*	*	*	*edit	*	*
.	.	.	.	4.d	pec-	.	.
.	.	2GG	qui	.	.	.	.
.	.	.	.	8c	.	.	.
.	.	.	.	[4B	-ca-	.	.
=121	=121	=121	=121	=121	=121	=121	=121
1r	.	1D	tol-	4B]	.	1r	.
.	.	.	.	8AL	.	.	.
.	.	.	.	8GJ	.	.	.
.	.	.	.	4F	.	.	.
.	.	.	.	4A	.	.	.
=122	=122	=122	=122	=122	=122	=122	=122
1r	.	2BB	-lis	4B	.	1r	.
.	.	.	.	4.d	.	.	.
.	.	2GG	pec-	.	.	.	.
.	.	.	.	8cL	.	.	.
.	.	.	.	8B	.	.	.
.	.	.	.	8AJ	.	.	.
=123	=123	=123	=123	=123	=123	=123	=123
2C	qui	1AA	-ca-	8cL	.	1r	.
.	.	.	.	8B	.	.	.
.	.	.	.	8A	.	.	.
.	.	.	.	8GJ	.	.	.
2C	tol-	.	.	2F	.	.	.
!!LO:LB:g=original
=124	=124	=124	=124	=124	=124	=124	=124
4D	-lis	[1GG	-ta,	2G	-ta,	2r	.
4E	.	.	.	.	.	.	.
*	*	*	*	*	*	*	*edit
4D	.	.	.	2r	.	4d	qui
*	*Xedit	*	*	*	*	*	*
[4G	pec-	.	.	.	.	4e	.
=125	=125	=125	=125	=125	=125	=125	=125
8G]L	.	1GG]	.	1r	.	4d	.
8AJ	.	.	.	.	.	.	.
2B	-ca-	.	.	.	.	4.g	tol-
.	.	.	.	.	.	8a	.
[4G	.	.	.	.	.	[4b	-lis
=126	=126	=126	=126	=126	=126	=126	=126
4G]	.	2r	.	1r	.	4b]	.
*	*	*	*	*	*	*	*Xedit
2B	.	.	.	.	.	4.g	pec-
.	.	2GG	pec-	.	.	.	.
.	.	.	.	.	.	8f	.
8AL	.	.	.	.	.	[4a	-ca-
8GJ	.	.	.	.	.	.	.
=127	=127	=127	=127	=127	=127	=127	=127
*	*	*	*	*	*Xedit	*	*
4.F	.	2D	-ca-	4.d	pec-	8a]L	.
.	.	.	.	.	.	8g	.
.	.	.	.	.	.	8f	.
8G	.	.	.	8c	.	8eJ	.
2A	.	2D	-ta	4A	.	2f#j	.
.	.	.	.	4d	.	.	.
=128	=128	=128	=128	=128	=128	=128	=128
*	*	*col	*	*	*	*	*
2G	-ta	2.E	mun-	4B	.	2g	-ta
*	*	*	*	*col	*	*	*
.	.	.	.	4.e	-ca-	.	.
*	*	*	*	*	*	*	*edit
2r	.	.	.	.	.	4c	mun-
.	.	.	.	8fL	.	.	.
*	*	*	*	*Xcol	*	*	*
.	.	4E	-di,	8g	.	4g	.
*	*	*Xcol	*	*	*	*	*
.	.	.	.	8eJ	.	.	.
!!LO:LB:g=original
=129	=129	=129	=129	=129	=129	=129	=129
1r	.	2D	pec-	8.fL	.	4f	.
.	.	.	.	16ek	.	.	.
.	.	.	.	8d	.	4a	.
.	.	.	.	8cJ	.	.	.
.	.	2D	-ca-	4.B	-ta	8bL	.
.	.	.	.	.	.	8a	.
.	.	.	.	.	.	8g	.
.	.	.	.	8A	.	8fJ	.
=130	=130	=130	=130	=130	=130	=130	=130
4.G	mun-	1C	-ta:	4.c	mun-	2e	-di,
8F	.	.	.	8d	.	.	.
4G	.	.	.	4e	.	2r	.
[4A	.	.	.	[4c	.	.	.
=131	=131	=131	=131	=131	=131	=131	=131
4A]	.	2r	.	4c]	.	1r	.
8GL	.	.	.	8BL	.	.	.
8FJ	.	.	.	8AJ	.	.	.
*	*edit	*	*	*	*	*	*
2E	-di,	2C	do-	2G	-di:	.	.
=132	=132	=132	=132	=132	=132	=132	=132
*	*	*	*	*	*	*	*Xedit
4C	mun-	2C	-na	1r	.	2g	mun-
4.E	.	.	.	.	.	.	.
.	.	2C	no-	.	.	8gL	.
8F	.	.	.	.	.	8f	.
4G	.	.	.	.	.	8e	.
.	.	.	.	.	.	8dJ	.
=133	=133	=133	=133	=133	=133	=133	=133
4.A	.	2AA	-bis,	1r	.	4.c	.
8B	.	.	.	.	.	8d	.
4.c	.	2AA	do-	.	.	4e	.
.	.	.	.	.	.	4f	.
8B	.	.	.	.	.	.	.
!!LO:LB:g=original
=134	=134	=134	=134	=134	=134	=134	=134
*	*Xedit	*	*	*	*	*	*
2G	-di:	2C	-na	1c	do-	4e	.
.	.	.	.	.	.	4g	.
2r	.	2C	no-	.	.	4a	.
.	.	.	.	.	.	4cc	.
=135	=135	=135	=135	=135	=135	=135	=135
4.G	do-	2GG	-bis	4d	.	2.b	.
.	.	.	.	4e	.	.	.
8A	.	.	.	.	.	.	.
8BL	.	2GG	pa-	4d	.	.	.
8cJ	.	.	.	.	.	.	.
[4d	.	.	.	4g	.	4g	.
=136	=136	=136	=136	=136	=136	=136	=136
8d]L	.	2D	.	4f	.	4a	.
8cJ	.	.	.	.	.	.	.
4B	.	.	.	4d	.	4b	.
4A	.	2C	.	2e	.	2cc	-di:
4c	.	.	.	.	.	.	.
=137	=137	=137	=137	=137	=137	=137	=137
8dL	.	1BB	.	2d	-na	4r	.
8c	.	.	.	.	.	.	.
8B	.	.	.	.	.	2dd	do-
8AJ	.	.	.	.	.	.	.
4.G	.	.	.	4r	.	.	.
.	.	.	.	4g	no-	4b	.
8F	.	.	.	.	.	.	.
=138	=138	=138	=138	=138	=138	=138	=138
2A	-na	[1AA	-cem,	4c	.	4cc	.
.	.	.	.	2f	.	2a	.
4r	.	.	.	.	.	.	.
[4A	no-	.	.	8eL	.	8gL	.
.	.	.	.	8dJ	.	8fJ	.
!!LO:PB:g=original
=139	=139	=139	=139	=139	=139	=139	=139
4A]	.	1AA]	.	4.c	.	2.e	-na
8GL	.	.	.	.	.	.	.
8FJ	.	.	.	8d	.	.	.
4E	.	.	.	4e	.	.	.
4F	.	.	.	4A	.	[4a	no-
=140	=140	=140	=140	=140	=140	=140	=140
2E	-bis	2r	.	2B	.	4a]	.
.	.	.	.	.	.	4g#i	.
2r	.	2AA	do-	4A	-bis	2a	-bis
*	*	*	*	*	*edit	*	*
.	.	.	.	[4c	pa-	.	.
=141	=141	=141	=141	=141	=141	=141	=141
*	*	*	*	*	*	*	*edit
1r	.	2C	-na	8c]L	.	4.g	pa-
.	.	.	.	8dJ	.	.	.
.	.	.	.	4e	.	.	.
.	.	.	.	.	.	8f	.
.	.	2C	no-	4A	.	8eL	.
.	.	.	.	.	.	8dJ	.
.	.	.	.	[4e	.	[4c	.
=142	=142	=142	=142	=142	=142	=142	=142
1r	.	2AA	-bis	8e]L	.	4c]	.
.	.	.	.	8d	.	.	.
.	.	.	.	8c	.	4d	.
.	.	.	.	8BJ	.	.	.
.	.	2AA	pa-	4.c	.	2e	.
.	.	.	.	8B	.	.	.
=143	=143	=143	=143	=143	=143	=143	=143
1r	.	1D	.	4.d	.	4.f	.
.	.	.	.	8c	.	8g	.
.	.	.	.	4A	.	4a	.
.	.	.	.	[4B	.	[4d	.
=144	=144	=144	=144	=144	=144	=144	=144
1r	.	2BB	.	4B]	.	4d]	.
.	.	.	.	4.G	.	4.g	.
.	.	2GG	.	.	.	.	.
.	.	.	.	8A	.	8fL	.
.	.	.	.	4B	.	8e	.
.	.	.	.	.	.	8dJ	.
!!LO:LB:g=original
=145	=145	=145	=145	=145	=145	=145	=145
1A	pa-	1AA	.	8cL	.	2c	-cem,
.	.	.	.	8B	.	.	.
.	.	.	.	8A	.	.	.
.	.	.	.	8GJ	.	.	.
.	.	.	.	2F	-cem,	4r	.
*	*	*	*	*	*	*	*Xedit
.	.	.	.	.	.	4cc	pa-
=146	=146	=146	=146	=146	=146	=146	=146
*	*	*	*	*	*Xedit	*	*
2B	.	1GG	-cem,	4.G	pa-	4b	.
.	.	.	.	.	.	4.dd	.
.	.	.	.	8A	.	.	.
2G	.	.	.	8BL	.	.	.
.	.	.	.	8cJ	.	8cc	.
.	.	.	.	[4d	.	4b	.
=147	=147	=147	=147	=147	=147	=147	=147
4F	.	1r	.	8d]L	.	2a	.
.	.	.	.	8eJ	.	.	.
4A	.	.	.	4f	.	.	.
2G	.	.	.	2g	.	2b	.
=148	=148	=148	=148	=148	=148	=148	=148
4F	.	1r	.	2.d	.	4.a	.
2G	.	.	.	.	.	.	.
.	.	.	.	.	.	8b	.
.	.	.	.	.	.	4a	.
[4C	.	.	.	[4e	.	[4cc	.
=149	=149	=149	=149	=149	=149	=149	=149
4C]	.	1r	.	8e]L	.	8cc]L	.
.	.	.	.	8d	.	8b	.
4G	.	.	.	8c	.	8a	.
.	.	.	.	8BJ	.	8gJ	.
2D	.	.	.	2A	.	4.f#i	.
.	.	.	.	.	.	8e	.
=150	=150	=150	=150	=150	=150	=150	=150
1D 1Gl	-cem.	1GGl	[pa]-cem.	1G 1dl	-cem.	1gl	-cem.
==	==	==	==	==	==	==	==
*-	*-	*-	*-	*-	*-	*-	*-
!!!system-decoration: [*]
!!!RDF**kern: j = editorial accidental, optional, paren up
!!!RDF**kern: i = editorial accidental
!!!RDF**kern: l = terminal breve
!!!PTL: Gaspar van Weerbeke: Collected Works. I. Masses, Part 1
!!!PPR: American Institute of Musicology
!!!PC#: Corpus Mensurabilis Musicae 106/I.1
!!!PDT: 2016
!!!PED: Pavanello, Agnese
!!!YEM: CC-BY-SA 4.0 (https://creativecommons.org/licenses/by-nc/4.0/legalcode)
!!!EED: Mair-Gruber, Roland
!!!EEV: 2021/10/31
